X: 22253
T: La Grondeuse
R: reel
M: 4/4
K: Gmajor
|:G2BA G2Bd|gfga bgdB|c2ec B2dB|ABcA GFED|
G2BA G2Bd|gfga bgdB|c2ec B2dB|AFDF G4:|
|:DEFG ABcB|AGAB cdef|gfge defg|bgab a2 fd|
g2bg f2af|efge dBGB|c2ec B2dB|AFDF G4:|

